X:11788
T:New York the New Way
B:Walsh
M:3/2
L:1/8
N:
K:Gm
EGFE DFED C3 B| ABcd c3 C DEFD| EGFE DEFD C3 B| FBAc B3 B, DEFD::\
E2 G2 _AGFE DEFD |CcBd c3 C DEFD|E2 G2 _AGFE DEFD|B,BAc B3 B, DEFD::\
B2 d2 edcB ABcA| GcBd c3 C DEFD|E2 d3 edcB ABcA| FBAc B3 B, DEFD::\
BGEG FDB,D C3 c| ABcd c3 C DEFD|BGDG FDB,D C3 e| d2 B2 B3 B, DEFD:|
